packages/tokens/icons/announcement/size32Px.svg

<svg viewBox="0 0 32 32" fill="none" xmlns="http://www.w3.org/2000/svg" width="1em" height="1em"><path d="M8.29571 25.1213L6.64039 18.5H11.2192C11.4487 18.5 11.6486 18.6561 11.7043 18.8787L13.2043 24.8787C13.2832 25.1943 13.0445 25.5 12.7192 25.5H8.78078C8.55134 25.5 8.35135 25.3439 8.29571 25.1213Z" stroke="currentColor"/><path d="M7 9.5H11.5V18.5H7C6.72386 18.5 6.5 18.2761 6.5 18V10C6.5 9.72386 6.72386 9.5 7 9.5Z" stroke="currentColor"/><path d="M6.5 18.4725C4.25002 18.2238 2.5 16.3163 2.5 14C2.5 11.6837 4.25002 9.77619 6.5 9.52746V18.4725Z" stroke="currentColor"/><path d="M23.5 17.5V12.5H24C25.3807 12.5 26.5 13.6193 26.5 15C26.5 16.3807 25.3807 17.5 24 17.5H23.5Z" stroke="currentColor"/><path d="M22.853 5.87607L11.5 9.36929V18.6307L22.853 22.1239C23.1745 22.2229 23.5 21.9824 23.5 21.646V6.35396C23.5 6.01756 23.1745 5.77714 22.853 5.87607Z" stroke="currentColor"/><path d="M28.5 15H29.5" stroke="currentColor" stroke-linecap="round"/><path d="M28.5 11.5L29.5 10.5" stroke="currentColor" stroke-linecap="round"/><path d="M28.5 18.5L29.5 19.5" stroke="currentColor" stroke-linecap="round"/></svg>

<svg xmlns="http://www.w3.org/2000/svg" fill="none" viewBox="0 0 32 32" width="1em" height="1em"><path stroke="currentColor" d="M8.296 25.121 6.64 18.5h4.58a.5.5 0 0 1 .484.379l1.5 6a.5.5 0 0 1-.485.621H8.781a.5.5 0 0 1-.485-.379ZM7 9.5h4.5v9H7a.5.5 0 0 1-.5-.5v-8a.5.5 0 0 1 .5-.5Zm-.5 8.973a4.5 4.5 0 0 1 0-8.946v8.946Zm17-.973v-5h.5a2.5 2.5 0 0 1 0 5h-.5Z"/><path stroke="currentColor" d="M22.853 5.876 11.5 9.37v9.262l11.353 3.493a.5.5 0 0 0 .647-.478V6.354a.5.5 0 0 0-.647-.478Z"/><path stroke="currentColor" stroke-linecap="round" d="M28.5 15h1m-1-3.5 1-1m-1 8 1 1"/></svg>
